assets/img/icons/icon-black-home-7-service-1.svg

<svg width="75" height="70" viewBox="0 0 75 70" fill="none" xmlns="http://www.w3.org/2000/svg">
<path d="M64.9873 47.8025C65.1935 47.2684 65.3135 46.6966 65.3253 46.1099C66.4069 30.9563 66.6086 17.7535 65.9412 5.80299C65.9796 2.95193 63.6719 0.726399 60.9751 0.726399C60.9741 0.726399 60.9741 0.726399 60.973 0.726399C44.2656 0.0739879 23.0773 -0.514042 7.45154 0.725328C6.55829 0.725328 5.73091 0.979841 5.00445 1.39048C3.3192 1.6 1.97252 3.24517 1.32356 4.706C0.469485 6.6287 0.408992 8.79619 0.362181 10.8994C0.140865 20.8495 0.24884 30.7684 0.027457 40.7185C-0.230233 52.3034 1.13663 52.9928 12.322 53.5049C26.5593 54.1568 40.8204 53.596 55.0614 53.0171C55.1514 56.8593 55.2637 60.7018 55.4109 64.5267C55.4216 64.8036 55.7563 65.14 55.9646 65.3199C56.2793 65.8141 56.939 65.8146 57.2806 65.4172C58.3251 64.2007 59.1487 63.3519 61.0772 61.2451C62.4472 63.7221 63.9981 66.3333 65.382 68.8206C65.7788 69.5339 66.4536 69.8418 67.2686 69.8828C67.4721 69.9602 67.6552 70.0264 68.0433 69.9895C69.6593 69.8392 70.7839 69.1654 71.6852 67.809C72.0608 67.2543 72.0876 66.5246 71.7518 65.9484C70.1797 63.2636 68.6281 60.5939 66.9831 57.5625C69.3102 57.2317 71.0303 57.1198 74.1908 56.7878C74.9078 56.7125 75.1895 55.8128 74.6415 55.3424C71.5798 52.713 68.2932 50.1712 64.9873 47.8025ZM56.9405 42.4079C56.3822 42.0583 55.674 42.4705 55.6786 43.1118L55.6805 43.3195L55.0462 44.3909C54.8382 44.7424 54.909 44.5763 54.9974 49.5116C49.935 49.5692 30.9735 50.1937 7.45154 49.3698C5.60375 49.3698 4.10041 47.8622 4.09826 45.9435C3.40534 37.0464 3.26303 26.9539 3.66797 15.2844H64.6328C64.8851 29.7655 63.784 46.0067 63.5773 46.8299C61.5924 45.4387 59.079 43.7505 56.9405 42.4079ZM7.51699 2.37138C23.3906 1.11571 44.9715 1.75209 60.9408 2.37353C62.7532 2.37353 64.3187 3.81764 64.2941 5.83733C64.4355 8.37595 64.5292 10.9821 64.5922 13.6362H3.72806C3.82698 11.0741 3.94985 8.44242 4.10041 5.72573C4.10041 3.87687 5.60375 2.37353 7.51699 2.37138ZM65.5732 56.1085C65.0112 56.198 64.7111 56.8135 64.9765 57.3103C66.8426 60.802 68.5734 63.783 70.3289 66.7811L71.0403 66.3647L70.316 66.8916C69.5896 67.985 68.8492 68.2597 67.7911 68.3048C67.7095 68.1583 62.6727 58.8862 62.5751 58.7042C62.2908 58.2298 61.6133 58.1583 61.2423 58.5916C60.1104 59.9099 58.7737 61.3073 57.4631 62.7346C57.4516 61.5723 57.3415 44.7675 57.3407 44.6162C62.1824 47.7376 67.5892 51.598 72.0887 55.3434C69.6268 55.5802 67.9492 55.7286 65.5732 56.1085Z" fill="black"/>
<path d="M8.55448 10.6691C9.92071 10.4132 10.5259 8.98018 9.75844 7.82552C9.39789 7.28256 8.82167 6.9585 8.2154 6.9585C8.10702 7.01108 7.98147 6.98425 7.87739 7.03039C7.41893 6.99258 6.62047 7.50439 6.40946 8.44681C6.10866 9.80038 7.17721 10.9142 8.55448 10.6691Z" fill="black"/>
<path d="M14.7985 10.5899C16.3432 10.5899 17.25 9.01665 16.3781 7.70878C15.7552 6.77443 14.7229 6.81501 14.8329 6.84498C14.7148 6.84498 14.6022 6.87073 14.5002 6.9158C14.3876 6.90614 14.2738 6.92653 14.1633 6.96945C12.3515 7.65917 12.6782 10.5899 14.7985 10.5899Z" fill="black"/>
<path d="M22.2086 10.6982C23.5753 10.4445 24.178 9.00948 23.4104 7.85465C22.8868 7.06377 21.9826 6.86053 21.5325 7.05952C21.4231 7.05201 21.3061 7.07025 21.1956 7.1121C19.2179 7.86874 19.8413 11.1396 22.2086 10.6982Z" fill="black"/>
<path d="M33.0185 8.52838H33.0282L55.7435 8.26441C56.1985 8.25905 56.5633 7.88563 56.5579 7.43065C56.5526 6.97568 56.1963 6.65055 55.7242 6.61621L33.0088 6.88018C32.5539 6.88555 32.189 7.25897 32.1944 7.71394C32.1998 8.16569 32.5678 8.52838 33.0185 8.52838Z" fill="black"/>
<path d="M23.4304 20.8105H10.3618C8.40666 20.8105 6.81641 22.2259 6.81641 23.9664V34.3277C6.81641 36.0446 8.3852 37.4599 10.3135 37.4836C27.0641 37.6851 22.1607 37.637 23.0838 37.637C24.9852 37.637 26.5701 36.2732 26.6281 34.5745L26.9747 24.0597C27.0004 23.2678 26.6957 22.5027 26.1173 21.9051C25.4445 21.2097 24.4648 20.8105 23.4304 20.8105ZM24.9799 34.5198C24.9531 35.3428 24.0635 35.9791 23.0548 35.9888L10.3328 35.8354C9.30266 35.8225 8.46461 35.1465 8.46461 34.3277V23.9664C8.46461 23.1348 9.31553 22.4587 10.3618 22.4587H23.4304C24.0206 22.4587 24.5689 22.6744 24.9337 23.0521C25.1204 23.2453 25.3415 23.5683 25.3265 24.0061L24.9799 34.5198Z" fill="black"/>
<path d="M54.7626 23.5371H35.7665C35.3115 23.5371 34.9424 23.9062 34.9424 24.3612C34.9424 24.8162 35.3115 25.1853 35.7665 25.1853H54.7626C55.2176 25.1853 55.5867 24.8162 55.5867 24.3612C55.5867 23.9062 55.2176 23.5371 54.7626 23.5371Z" fill="black"/>
<path d="M54.424 32.8643H31.4608C31.0058 32.8643 30.6367 33.2334 30.6367 33.6884C30.6367 34.1433 31.0058 34.5125 31.4608 34.5125H54.424C54.879 34.5125 55.2481 34.1433 55.2481 33.6884C55.2481 33.2334 54.879 32.8643 54.424 32.8643Z" fill="black"/>
<path d="M48.1106 41.188H36.6268C36.1719 41.188 35.8027 41.5571 35.8027 42.0121C35.8027 42.4671 36.1719 42.8362 36.6268 42.8362H48.1106C48.5656 42.8362 48.9347 42.4671 48.9347 42.0121C48.9347 41.5571 48.5656 41.188 48.1106 41.188Z" fill="black"/>
</svg>

<?xml version="1.0" encoding="utf-8"?>
<!-- Generator: Adobe Illustrator 28.3.0, SVG Export Plug-In . SVG Version: 6.00 Build 0)  -->
<svg version="1.1" id="Layer_1" xmlns="http://www.w3.org/2000/svg" xmlns:xlink="http://www.w3.org/1999/xlink" x="0px" y="0px"
	 viewBox="0 0 75 70" style="enable-background:new 0 0 75 70;" xml:space="preserve">
<style type="text/css">
	.st0{fill:#27466F;}
</style>
<path class="st0" d="M65,47.8c0.2-0.5,0.3-1.1,0.3-1.7c1.1-15.2,1.3-28.4,0.6-40.3c0-2.9-2.3-5.1-5-5.1c0,0,0,0,0,0
	c-16.7-0.7-37.9-1.2-53.5,0C6.6,0.7,5.7,1,5,1.4C3.3,1.6,2,3.2,1.3,4.7c-0.9,1.9-0.9,4.1-1,6.2C0.1,20.8,0.2,30.8,0,40.7
	C-0.2,52.3,1.1,53,12.3,53.5c14.2,0.7,28.5,0.1,42.7-0.5c0.1,3.8,0.2,7.7,0.3,11.5c0,0.3,0.3,0.6,0.6,0.8c0.3,0.5,1,0.5,1.3,0.1
	c1-1.2,1.9-2.1,3.8-4.2c1.4,2.5,2.9,5.1,4.3,7.6c0.4,0.7,1.1,1,1.9,1.1C67.5,70,67.7,70,68,70c1.6-0.2,2.7-0.8,3.6-2.2
	c0.4-0.6,0.4-1.3,0.1-1.9c-1.6-2.7-3.1-5.4-4.8-8.4c2.3-0.3,4-0.4,7.2-0.8c0.7-0.1,1-1,0.5-1.4C71.6,52.7,68.3,50.2,65,47.8z
	 M56.9,42.4c-0.6-0.3-1.3,0.1-1.3,0.7l0,0.2L55,44.4c-0.2,0.4-0.1,0.2,0,5.1c-5.1,0.1-24,0.7-47.5-0.1c-1.8,0-3.4-1.5-3.4-3.4
	C3.4,37,3.3,27,3.7,15.3h61c0.3,14.5-0.8,30.7-1.1,31.5C61.6,45.4,59.1,43.8,56.9,42.4z M7.5,2.4c15.9-1.3,37.5-0.6,53.4,0
	c1.8,0,3.4,1.4,3.4,3.5c0.1,2.5,0.2,5.1,0.3,7.8H3.7c0.1-2.6,0.2-5.2,0.4-7.9C4.1,3.9,5.6,2.4,7.5,2.4z M65.6,56.1
	c-0.6,0.1-0.9,0.7-0.6,1.2c1.9,3.5,3.6,6.5,5.4,9.5l0.7-0.4l-0.7,0.5c-0.7,1.1-1.5,1.4-2.5,1.4c-0.1-0.1-5.1-9.4-5.2-9.6
	c-0.3-0.5-1-0.5-1.3-0.1c-1.1,1.3-2.5,2.7-3.8,4.1c0-1.2-0.1-18-0.1-18.1c4.8,3.1,10.2,7,14.7,10.7C69.6,55.6,67.9,55.7,65.6,56.1z"
	/>
<path class="st0" d="M8.6,10.7c1.4-0.3,2-1.7,1.2-2.8C9.4,7.3,8.8,7,8.2,7C8.1,7,8,7,7.9,7C7.4,7,6.6,7.5,6.4,8.4
	C6.1,9.8,7.2,10.9,8.6,10.7z"/>
<path class="st0" d="M14.8,10.6c1.5,0,2.5-1.6,1.6-2.9c-0.6-0.9-1.7-0.9-1.5-0.9c-0.1,0-0.2,0-0.3,0.1c-0.1,0-0.2,0-0.3,0.1
	C12.4,7.7,12.7,10.6,14.8,10.6z"/>
<path class="st0" d="M22.2,10.7c1.4-0.3,2-1.7,1.2-2.8c-0.5-0.8-1.4-1-1.9-0.8c-0.1,0-0.2,0-0.3,0.1C19.2,7.9,19.8,11.1,22.2,10.7z"
	/>
<path class="st0" d="M33,8.5L33,8.5l22.7-0.3c0.5,0,0.8-0.4,0.8-0.8c0-0.5-0.4-0.8-0.8-0.8L33,6.9c-0.5,0-0.8,0.4-0.8,0.8
	C32.2,8.2,32.6,8.5,33,8.5z"/>
<path class="st0" d="M23.4,20.8H10.4c-2,0-3.5,1.4-3.5,3.2v10.4c0,1.7,1.6,3.1,3.5,3.2c16.8,0.2,11.8,0.2,12.8,0.2
	c1.9,0,3.5-1.4,3.5-3.1L27,24.1c0-0.8-0.3-1.6-0.9-2.2C25.4,21.2,24.5,20.8,23.4,20.8z M25,34.5c0,0.8-0.9,1.5-1.9,1.5l-12.7-0.2
	c-1,0-1.9-0.7-1.9-1.5V24c0-0.8,0.9-1.5,1.9-1.5h13.1c0.6,0,1.1,0.2,1.5,0.6c0.2,0.2,0.4,0.5,0.4,1L25,34.5z"/>
<path class="st0" d="M54.8,23.5h-19c-0.5,0-0.8,0.4-0.8,0.8s0.4,0.8,0.8,0.8h19c0.5,0,0.8-0.4,0.8-0.8S55.2,23.5,54.8,23.5z"/>
<path class="st0" d="M54.4,32.9h-23c-0.5,0-0.8,0.4-0.8,0.8c0,0.5,0.4,0.8,0.8,0.8h23c0.5,0,0.8-0.4,0.8-0.8
	C55.2,33.2,54.9,32.9,54.4,32.9z"/>
<path class="st0" d="M48.1,41.2H36.6c-0.5,0-0.8,0.4-0.8,0.8c0,0.5,0.4,0.8,0.8,0.8h11.5c0.5,0,0.8-0.4,0.8-0.8
	C48.9,41.6,48.6,41.2,48.1,41.2z"/>
</svg>
